X: 22553
T: Lady Lane
R: jig
M: 6/8
K: Gmajor
Bc|dBG GBd|cAG FAD|D3 FAD|FGA ABc|
dBG GBd|cAG FAD|D3 FAd|cAF G3|
d2F GBd|cAG FAD|D3 FAD|FGA ABc|
dBG GB/c/d|cAG FAD|D3 FAd|cAF G3||
dB/c/d gdB|c2e dge|dBG G2E|FAG FAD|
dB/c/d gdB|c2e dge|dB/A/G BdB|cAF G3|
dB/c/d gdB|c2e dge|dBg ed/c/B|ABc def|
g2b gdB|c2e dge|dB/A/G BdB|cAF G3||

